logos/harmonycloud-paa-s-container-platform-install.svg

<svg xmlns="http://www.w3.org/2000/svg" viewBox="5.3 15.3 478.4 416.4">
	<path fill="#005D96" d="m370.453 158.985-132.369 74.833c-.128.074-.263.132-.393.199l.145.256a109.175 109.175 0 0 1-49.975 12.062c-60.56 0-109.655-49.095-109.655-109.656 0-60.562 49.095-109.656 109.655-109.656 31.212 0 59.353 13.061 79.323 33.989l-49.687 29.11a54.924 54.924 0 0 0-29.632-8.64c-30.484 0-55.197 24.713-55.197 55.197s24.713 55.195 55.197 55.195a54.947 54.947 0 0 0 22.79-4.928l.118.204c.092-.054.175-.117.267-.171l132.368-74.833c12.935-7.467 29.475-3.036 36.939 9.899 7.473 12.933 3.041 29.473-9.894 36.94z"/>
	<path fill="#005D96" d="M144.269 34.71a5.113 5.113 0 1 1 0-10.226 5.113 5.113 0 0 1 0 10.226zm-14.837 9.167a5.068 5.068 0 0 1-.99-3 5.112 5.112 0 0 1 9.81-2.012 109.517 109.517 0 0 0-8.82 5.012zm-11.836-1.202a5.113 5.113 0 1 1 0-10.225 5.113 5.113 0 0 1 0 10.225zm-12.225 14.448a5.112 5.112 0 1 1-.002-10.224 5.112 5.112 0 0 1 .002 10.224zm-9.632 20.061c-.359.08-.729.129-1.112.129a5.114 5.114 0 0 1-5.114-5.112 5.114 5.114 0 0 1 5.114-5.113c2.586 0 4.703 1.929 5.042 4.422a110.683 110.683 0 0 0-3.93 5.674zm-10.373-11.17a5.113 5.113 0 1 1 0-10.225 5.113 5.113 0 0 1 0 10.225zm-1.111-21.117a5.112 5.112 0 1 1-.001-10.225 5.112 5.112 0 0 1 .001 10.225zm-2.668 48.235a5.112 5.112 0 1 1-10.225 0 5.112 5.112 0 0 1 10.225 0zM65.361 70.459a5.112 5.112 0 1 1-.001-10.225 5.112 5.112 0 0 1 .001 10.225zm-8.89 24.45a5.113 5.113 0 1 1-.002-10.226 5.113 5.113 0 0 1 .002 10.226zm-6.669-46.678a5.113 5.113 0 1 1 0-10.225 5.113 5.113 0 0 1 0 10.225zM37.577 71.57a5.113 5.113 0 1 1 0-10.225 5.113 5.113 0 0 1 0 10.225zM19.795 42.675a5.113 5.113 0 1 1 0-10.225 5.113 5.113 0 0 1 0 10.225zm57.529 67.757c1.443 0 2.743.604 3.673 1.567a109.284 109.284 0 0 0-1.554 8.187 5.09 5.09 0 0 1-2.119.471 5.112 5.112 0 0 1-5.112-5.111 5.112 5.112 0 0 1 5.112-5.114z"/>
	<linearGradient id="a" x1="280.629" x2="586.401" y1="480.7" y2="480.7" gradientTransform="translate(-112 -344.022)" gradientUnits="userSpaceOnUse">
		<stop offset="0" stop-color="#a7a8a8"/>
		<stop offset=".469" stop-color="#fff"/>
		<stop offset="1" stop-color="#a7a8a8"/>
	</linearGradient>
	<path fill="url(#a)" d="m182.154 114.369 132.369-74.833c.131-.074.266-.129.395-.201l-.146-.254a109.157 109.157 0 0 1 49.978-12.06c60.561 0 109.652 49.095 109.652 109.656 0 60.561-49.094 109.658-109.652 109.658-31.212 0-59.354-13.062-79.324-33.99l49.688-29.111a54.93 54.93 0 0 0 29.634 8.64c30.484 0 55.196-24.711 55.196-55.195s-24.712-55.197-55.196-55.197a54.956 54.956 0 0 0-22.791 4.929l-.117-.205c-.092.055-.174.12-.268.173l-132.369 74.833c-12.935 7.467-29.474 3.035-36.942-9.898-7.473-12.938-3.04-29.478 9.893-36.945z"/>
	<path fill="#FFF" d="M164.45 41.987a5.112 5.112 0 1 1 0-10.224 5.112 5.112 0 0 1 0 10.224zm-26.006 15.56a5.112 5.112 0 1 1 10.225.003 5.112 5.112 0 0 1-10.225-.003zm-.193-18.683a5.113 5.113 0 0 1-4.698 7.125 5.094 5.094 0 0 1-4.122-2.112 110.18 110.18 0 0 1 8.82-5.013zM99.739 72.201a5.11 5.11 0 0 1-4 4.983 111.124 111.124 0 0 1 3.93-5.674c.032.229.07.454.07.691zm-18.742 39.798a5.091 5.091 0 0 1 1.439 3.546 5.104 5.104 0 0 1-2.993 4.641c.416-2.765.935-5.495 1.554-8.187zm25.222 7.546a5.112 5.112 0 1 1 5.112-5.112 5.111 5.111 0 0 1-5.112 5.112zm-1.339-42.882a5.112 5.112 0 1 1 0 10.226 5.112 5.112 0 0 1 0-10.226zm-3.106 17.554a5.112 5.112 0 1 1 0 10.226 5.112 5.112 0 0 1 0-10.226zm-.679 31.095a5.112 5.112 0 1 1-10.224.002 5.112 5.112 0 0 1 10.224-.002zm20.233-63.763a5.113 5.113 0 1 1 .001-10.225 5.113 5.113 0 0 1-.001 10.225zm1.334 22.004a5.112 5.112 0 1 1 0-10.224 5.112 5.112 0 0 1 0 10.224z"/>
	<path d="M95.127 295.029v-16.722m-11.473 26.682h5.578c3.067 0 7.808 1.954 7.808 7.811s-.558 37.087-.558 40.991c0 3.902 3.626 7.809 7.25 7.809h5.02m28.72-49.359h-14.777a8.365 8.365 0 0 1-8.366-8.366v-23.982m22.588 9.759h-23.424m55.769 22.589h-14.777a8.365 8.365 0 0 1-8.366-8.366v-23.982m22.588 6.691-23.425 10.32m-22.309 28.721h34.022a8.367 8.367 0 0 1 8.366 8.366v19.519a8.366 8.366 0 0 1-8.366 8.365h-34.022a8.364 8.364 0 0 1-8.365-8.365v-19.519a8.364 8.364 0 0 1 8.365-8.366zm66.089-40.991h76.686m-139.706 33.741v7.25m136.36 7.252v17.287a8.366 8.366 0 0 1-8.366 8.365h-58.004l11.435-46.848m-21.474-.277h83.101m-153.372 32.627h49.916m153.509-35.902v55.005m-13.384-79.682v79.891m55.073-85.124v86.448m-67.762-56.331c0 22.309-.557 41.55-4.461 54.376M331 319.492l20.356 8.644M331 291.049l20.356 8.642m52.704-21.4v74.665a8.362 8.362 0 0 1-8.364 8.364h-5.438m26.56-40.224-27.816 16.105m-16.174 6.83h-44.896m86.794-50.961h-25.515m-66.857-11.782-33.741 3.905m131.551 5.996h54.586m-151.837 7.32h-35.765m138.454 24.47 46.639 39.528m-50.822-48.312h45.384c-4.183 17.359-29.488 38.48-47.685 47.894m28.444-83.866v37.018" fill="none" stroke="#727171" stroke-miterlimit="10" stroke-width="8"/>
	<g fill="none" stroke="#727171" stroke-miterlimit="10" stroke-width="5" clip-rule="evenodd">
		<path d="M187.508 422.375v-28.81c0-2.776 3.703-2.313 4.281 0 .579 2.314 6.017 20.479 6.711 22.446s4.165 2.198 4.744-.231 5.322-20.363 5.901-22.678c.578-2.313 4.744-2.43 4.744.811v28.462m11.685-30.714h14.347a3.702 3.702 0 0 1 3.702 3.702v20.648a3.702 3.702 0 0 1-3.702 3.702h-14.347a3.702 3.702 0 0 1-3.702-3.702v-20.648a3.701 3.701 0 0 1 3.702-3.702zm25.57 30.599v-28.396c0-2.429 4.513-3.586 5.901-.347s7.419 19.481 8.908 23.073c1.968 4.744 8.1 3.355 8.1-.231v-27.306m19.322 17.471v15.851m65.718-2.776h-19.785a3.703 3.703 0 0 1-3.702-3.703V395.36a3.703 3.703 0 0 1 3.702-3.703h19.785m25.917 27.942h-16.43a3.703 3.703 0 0 1-3.702-3.703v-26.9m29.041 2.314h13.652a3.702 3.702 0 0 1 3.703 3.702v21.231a3.703 3.703 0 0 1-3.703 3.702h-13.652a3.702 3.702 0 0 1-3.702-3.702v-21.231a3.701 3.701 0 0 1 3.702-3.702zm49.636-2.257v26.959a3.702 3.702 0 0 1-3.702 3.702h-17.124a3.701 3.701 0 0 1-3.702-3.702v-26.959m31.932 30.718h17.009a3.702 3.702 0 0 0 3.702-3.702v-21a3.703 3.703 0 0 0-3.702-3.702h-17.009v28.404zm-169.732-30.487s7.521 13.885 8.793 15.735c1.272 1.852 6.132 2.546 7.867-.347 1.736-2.893 7.521-15.735 7.521-15.735m-209.458.425v32.704m22.214-32.704v32.704m-22.831-17.587h22.523m11.455 4.938h17.586m12.728 12.727v-26.769a3.703 3.703 0 0 1 3.702-3.702h12.149a3.703 3.703 0 0 1 3.702 3.702v6.637a3.702 3.702 0 0 1-3.702 3.702h-15.62m-34.595 16.352s6.787-22.448 8.638-27.385c1.851-4.938 7.098-4.629 8.642 0 1.54 4.628 8.945 27.385 8.945 27.385"/>
		<path d="M175.476 405.482a3.703 3.703 0 0 1 3.702 3.703v12.958"/>
	</g>
</svg>

<svg xmlns="http://www.w3.org/2000/svg" role="img" viewBox="5.30 15.30 478.40 416.40"><title>Harmonycloud PaaS Container Platform Install logo</title><g><path fill="#005D96" d="M370.453,158.985l-132.369,74.833c-0.128,0.074-0.263,0.132-0.393,0.199l0.145,0.256 c-14.99,7.689-31.967,12.062-49.975,12.062c-60.56,0-109.655-49.095-109.655-109.656c0-60.562,49.095-109.656,109.655-109.656 c31.212,0,59.353,13.061,79.323,33.989l-49.687,29.11c-8.563-5.461-18.724-8.64-29.632-8.64c-30.484,0-55.197,24.713-55.197,55.197 c0,30.484,24.713,55.195,55.197,55.195c8.129,0,15.842-1.771,22.79-4.928l0.118,0.204c0.092-0.054,0.175-0.117,0.267-0.171 l132.368-74.833c12.935-7.467,29.475-3.036,36.939,9.899C387.82,134.978,383.388,151.518,370.453,158.985z"/><path fill="#005D96" d="M144.269,34.71c-2.824,0-5.113-2.289-5.113-5.113c0-2.823,2.289-5.112,5.113-5.112 c2.823,0,5.112,2.289,5.112,5.112C149.38,32.422,147.092,34.71,144.269,34.71z M129.432,43.877c-0.616-0.844-0.99-1.875-0.99-3 c0-2.823,2.289-5.112,5.112-5.112c2.108,0,3.917,1.277,4.698,3.1C135.229,40.401,132.287,42.076,129.432,43.877z M117.596,42.675 c-2.824,0-5.113-2.289-5.113-5.112c0-2.824,2.289-5.112,5.113-5.112c2.823,0,5.112,2.288,5.112,5.112 C122.708,40.386,120.419,42.675,117.596,42.675z M105.371,57.123c-2.825,0-5.113-2.289-5.113-5.112 c0-2.824,2.289-5.112,5.113-5.112c2.822,0,5.111,2.288,5.111,5.112C110.482,54.834,108.193,57.123,105.371,57.123z M95.739,77.184 c-0.359,0.08-0.729,0.129-1.112,0.129c-2.823,0-5.114-2.289-5.114-5.112c0-2.824,2.291-5.113,5.114-5.113 c2.586,0,4.703,1.929,5.042,4.422C98.302,73.358,96.991,75.25,95.739,77.184z M85.366,66.014c-2.824,0-5.113-2.289-5.113-5.112 c0-2.824,2.289-5.112,5.113-5.112c2.823,0,5.112,2.288,5.112,5.112C90.478,63.725,88.189,66.014,85.366,66.014z M84.255,44.897 c-2.824,0-5.113-2.289-5.113-5.111c0-2.825,2.289-5.112,5.113-5.112c2.823,0,5.112,2.288,5.112,5.112 C89.367,42.608,87.078,44.897,84.255,44.897z M81.587,93.132c0,2.823-2.289,5.112-5.112,5.112c-2.824,0-5.113-2.289-5.113-5.112 c0-2.824,2.289-5.112,5.113-5.112C79.298,88.02,81.587,90.308,81.587,93.132z M65.361,70.459c-2.824,0-5.113-2.289-5.113-5.111 c0-2.825,2.289-5.112,5.113-5.112c2.823,0,5.112,2.288,5.112,5.112C70.473,68.17,68.184,70.459,65.361,70.459z M56.471,94.909 c-2.825,0-5.114-2.289-5.114-5.112c0-2.824,2.289-5.112,5.114-5.112c2.823,0,5.112,2.288,5.112,5.112 C61.583,92.621,59.293,94.909,56.471,94.909z M49.802,48.231c-2.824,0-5.113-2.289-5.113-5.112c0-2.824,2.289-5.112,5.113-5.112 c2.823,0,5.112,2.288,5.112,5.112C54.914,45.942,52.625,48.231,49.802,48.231z M37.577,71.57c-2.824,0-5.113-2.289-5.113-5.112 c0-2.824,2.289-5.112,5.113-5.112c2.823,0,5.112,2.288,5.112,5.112S40.4,71.57,37.577,71.57z M19.795,42.675 c-2.824,0-5.113-2.289-5.113-5.112c0-2.824,2.289-5.112,5.113-5.112c2.823,0,5.112,2.288,5.112,5.112 C24.907,40.386,22.618,42.675,19.795,42.675z M77.324,110.432c1.443,0,2.743,0.604,3.673,1.567 c-0.619,2.693-1.137,5.422-1.554,8.187c-0.647,0.295-1.361,0.471-2.119,0.471c-2.824,0-5.112-2.289-5.112-5.111 C72.211,112.721,74.5,110.432,77.324,110.432z"/><linearGradient id="a" x1="280.629" x2="586.401" y1="480.7" y2="480.7" gradientTransform="translate(-112 -344.022)" gradientUnits="userSpaceOnUse"><stop offset="0" stop-color="#a7a8a8"/><stop offset=".469" stop-color="#fff"/><stop offset="1" stop-color="#a7a8a8"/></linearGradient><path fill="url(#a)" d="M182.154,114.369l132.369-74.833c0.131-0.074,0.266-0.129,0.395-0.201l-0.146-0.254 c14.989-7.691,31.97-12.06,49.978-12.06c60.561,0,109.652,49.095,109.652,109.656c0,60.561-49.094,109.658-109.652,109.658 c-31.212,0-59.354-13.062-79.324-33.99l49.688-29.111c8.563,5.461,18.726,8.64,29.634,8.64c30.484,0,55.196-24.711,55.196-55.195 c0-30.484-24.712-55.197-55.196-55.197c-8.131,0-15.84,1.772-22.791,4.929l-0.117-0.205c-0.092,0.055-0.174,0.12-0.268,0.173 l-132.369,74.833c-12.935,7.467-29.474,3.035-36.942-9.898C164.788,138.376,169.221,121.836,182.154,114.369z"/><path fill="#FFF" d="M164.45,41.987c-2.824,0-5.112-2.288-5.112-5.111c0-2.824,2.288-5.113,5.112-5.113 c2.824,0,5.113,2.289,5.113,5.113C169.562,39.699,167.273,41.987,164.45,41.987z M138.444,57.547c0-2.823,2.289-5.111,5.112-5.111 c2.823,0,5.113,2.288,5.113,5.111c0,2.824-2.29,5.113-5.113,5.113C140.733,62.66,138.444,60.371,138.444,57.547z M138.251,38.864 c0.265,0.617,0.415,1.297,0.415,2.012c0,2.824-2.29,5.113-5.113,5.113c-1.699,0-3.192-0.838-4.122-2.112 C132.287,42.076,135.229,40.401,138.251,38.864z M99.739,72.201c0,2.44-1.713,4.474-4,4.983c1.252-1.934,2.563-3.825,3.93-5.674 C99.701,71.739,99.739,71.964,99.739,72.201z M80.997,111.999c0.888,0.921,1.439,2.167,1.439,3.546c0,2.065-1.23,3.834-2.993,4.641 C79.859,117.421,80.378,114.691,80.997,111.999z M106.219,119.545c-2.824,0-5.112-2.289-5.112-5.112 c0-2.824,2.288-5.113,5.112-5.113c2.824,0,5.112,2.289,5.112,5.113C111.332,117.256,109.043,119.545,106.219,119.545z M104.88,76.663c2.824,0,5.112,2.289,5.112,5.112c0,2.824-2.288,5.113-5.112,5.113c-2.824,0-5.112-2.289-5.112-5.113 C99.769,78.952,102.056,76.663,104.88,76.663z M101.774,94.217c2.824,0,5.112,2.289,5.112,5.112c0,2.824-2.288,5.113-5.112,5.113 c-2.824,0-5.112-2.289-5.112-5.113C96.662,96.506,98.95,94.217,101.774,94.217z M101.095,125.312c0,2.824-2.288,5.113-5.112,5.113 c-2.822,0-5.113-2.289-5.113-5.113c0-2.823,2.291-5.112,5.113-5.112C98.807,120.201,101.095,122.49,101.095,125.312z M121.328,61.549c-2.823,0-5.112-2.289-5.112-5.113c0-2.823,2.289-5.112,5.112-5.112c2.823,0,5.113,2.289,5.113,5.112 C126.441,59.26,124.151,61.549,121.328,61.549z M122.662,83.553c-2.824,0-5.112-2.289-5.112-5.113c0-2.823,2.288-5.112,5.112-5.112 c2.824,0,5.112,2.289,5.112,5.112C127.774,81.265,125.486,83.553,122.662,83.553z"/></g><g fill="none" stroke="#727171" stroke-miterlimit="10" stroke-width="8"><path d="M95.127 295.029L95.127 278.307M83.654 304.989c0 0 2.51 0 5.578 0 3.067 0 7.808 1.954 7.808 7.811s-.558 37.087-.558 40.991c0 3.902 3.626 7.809 7.25 7.809s5.02 0 5.02 0M137.472 312.241h-14.777c-4.621 0-8.366-3.745-8.366-8.366v-23.982M136.917 289.652L113.493 289.652M169.262 312.241h-14.777c-4.621 0-8.366-3.745-8.366-8.366v-23.982M168.707 286.584L145.282 296.904M122.973 325.625h34.022c4.619 0 8.366 3.745 8.366 8.366v19.519c0 4.621-3.747 8.365-8.366 8.365h-34.022c-4.621 0-8.365-3.744-8.365-8.365v-19.519C114.607 329.371 118.352 325.625 122.973 325.625zM189.062 284.634L265.748 284.634M126.042 318.375L126.042 325.625M262.402 332.877v17.287c0 4.62-3.746 8.365-8.366 8.365h-58.004l11.435-46.848M185.993 311.404L269.094 311.404M115.722 344.031L165.638 344.031M319.147 308.129L319.147 363.134M305.763 283.452L305.763 363.343M360.836 278.219L360.836 364.667M293.074 308.336c0 22.309-.557 41.55-4.461 54.376M331 319.492L351.356 328.136M331 291.049L351.356 299.691M404.06 278.291v74.665c0 4.62-3.743 8.364-8.364 8.364 0 0-2.638 0-5.438 0M416.818 321.096L389.002 337.201M372.828 344.031L327.932 344.031M414.726 293.07L389.211 293.07M322.354 281.288L288.613 285.193M420.164 291.189L474.75 291.189M322.913 298.509L287.148 298.509M425.602 322.979L472.241 362.507M421.419 314.195c0 0 34.508 0 45.384 0-4.183 17.359-29.488 38.48-47.685 47.894M447.562 278.223L447.562 315.241"/></g><g fill="none" stroke="#727171" stroke-miterlimit="10" stroke-width="5" clip-rule="evenodd"><path d="M187.508 422.375c0 0 0-26.032 0-28.81 0-2.776 3.703-2.313 4.281 0 .579 2.314 6.017 20.479 6.711 22.446s4.165 2.198 4.744-.231 5.322-20.363 5.901-22.678c.578-2.313 4.744-2.43 4.744.811 0 3.239 0 28.462 0 28.462M225.574 391.661h14.347c2.044 0 3.702 1.657 3.702 3.702v20.648c0 2.045-1.658 3.702-3.702 3.702h-14.347c-2.044 0-3.702-1.657-3.702-3.702v-20.648C221.872 393.318 223.529 391.661 225.574 391.661zM251.144 422.26c0 0 0-25.967 0-28.396s4.513-3.586 5.901-.347c1.388 3.239 7.419 19.481 8.908 23.073 1.968 4.744 8.1 3.355 8.1-.231s0-27.306 0-27.306M293.375 406.524L293.375 422.375M359.093 419.599h-19.785c-2.044 0-3.702-1.658-3.702-3.703v-20.536c0-2.045 1.658-3.703 3.702-3.703h19.785M385.01 419.599h-16.43c-2.044 0-3.702-1.658-3.702-3.703v-26.9M393.919 391.31h13.652c2.045 0 3.703 1.657 3.703 3.702v21.231c0 2.044-1.658 3.702-3.703 3.702h-13.652c-2.045 0-3.702-1.658-3.702-3.702v-21.231C390.217 392.967 391.874 391.31 393.919 391.31zM443.555 389.053v26.959c0 2.045-1.658 3.702-3.702 3.702h-17.124c-2.045 0-3.702-1.657-3.702-3.702v-26.959M450.959 419.771h17.009c2.044 0 3.702-1.657 3.702-3.702v-21c0-2.044-1.658-3.702-3.702-3.702h-17.009V419.771zM281.227 389.284c0 0 7.521 13.885 8.793 15.735 1.272 1.852 6.132 2.546 7.867-.347 1.736-2.893 7.521-15.735 7.521-15.735M95.95 389.362L95.95 422.066M118.164 389.362L118.164 422.066M95.333 404.479L117.856 404.479M129.311 409.417L146.897 409.417M159.625 422.144v-26.769c0-2.044 1.658-3.702 3.702-3.702h12.149c2.044 0 3.702 1.658 3.702 3.702v6.637c0 2.045-1.658 3.702-3.702 3.702h-15.62M125.261 422.066c0 0 6.787-22.448 8.638-27.385 1.851-4.938 7.098-4.629 8.642 0 1.54 4.628 8.945 27.385 8.945 27.385"/><path d="M175.476,405.482c2.044,0,3.702,1.658,3.702,3.703v12.958"/></g></svg>
